X:1
T:Title
%%score [ 1 2 3 4 ]
L:1/8
Q:1/4=96
M:4/4
K:D
V:1 treble nm="S"
V:2 treble nm="A"
V:3 treble-8 nm="T"
V:4 bass nm="B"
V:1
!pp! dA BA FG AB/c/ | d>A A(B/c/) d>A A2- | A(A BA FG Ad/e/) | f>B B(c/d/) e>A A(B/c/) | %4
w: Hal- * * * * * * * *|le- lu- ja, hal- * le- lu- ja,|* hal- * * * * * * *|le- lu- ja, hal- * le- lu- ja, hal- *|
 (dA BA- A)A (dA- |!pp!!mf!"^(dim. e rit.)" A)B A2- AB !fermata!AA | d4 d2 cF | B4 A2 FE | %8
w: le- * * * * lu- ja, *|* hal- le- * lu- ja, Han|le- ver, o min|an- de, känn Din|
 D3 D G2 E2 |!f! A3 F E2 A2 | f6 eF | d4- dc (de) | f2 A2 d2 c2 |!p! B3 A !breath!A2 A2 | %14
w: Her- re och din|Gud i- gen! Han|le- ver, Han|le- * ver Han *|läm- nat har sitt|vi- lo- rum, Och|
 B2 A2 e2 B2 | A2 F2 !breath!E2 B2 | c2 B2 f2 c2 |!mp! B2 !breath!^G2 F2 F2 |!mf! G4 F2 c2 | %19
w: rös- ten hö- res,|som var stum, Och|han- den räck- es,|som var kall. Han|le- ver, Han|
!>(! d4!>)!!<(! c4!<)! |!f! (f2 e2) (d2 F2) | B2 E2 (A2 Bc) |!>(! d6 F2 | (B4 D4-!>)! | %24
w: le- ver,|Han * le- *|ver, och du * *|le- va|skall! *|
!mf! D)(A BA FG Ad/e/) | f>B B(c/d/) e>A A(B/c/) | (dA BA- A)A (BA- | A)G (FE) (DE) F2- | %28
w: * Hal- * * * * * * *|le- lu- ja, hal- * le- lu- ja, hal- *|le- * * * * lu- ja, *|* hal- le- * lu- * ja,|
 FE D2- D3 E | D3 (E/F/) D3 (E/F/) | D8- |!ppp!!>(! D4- D!>)! z z2 |] %32
w: * hal- le- * lu-|ja, hal- * le- lu- *|ja!||
V:2
!pp! (FE DE FE FG) | (FG) (FE) D(C DG | FE DE) (FE) (FG) | F(A GF EG FE) | (DC) (DE) F(G FE | %5
w: Hal- * * * * * * *|le- * lu- * ja, hal- * *|* * * * le- * lu- *|ja, hal- * * * * * *|le- * lu- * ja, hal- * *|
!pp!!mf! GF) (EC) (DF) !fermata!EA | F4 F2 ED | D2 C2 D2 C2 | B,3 D D2 C2 |!f! D3 D C2 A2 | %10
w: * * le- * lu- * ja, Han|le- ver, o min|an- de, känn din|Her- re och din|Gud i- gen! Han|
 A4 G3 D | (F2 BA) ^G2 =G2 | F2 ^E2 F2 =E2 |!p! E2 D2 !breath!C2 E2 | F2 E2 G2 F2 | %15
w: le- ver, Han|le- * * ver, Han|läm- nat har sitt|vi- lo- rum, Och|rös- ten hö- res,|
 E3 ^D !breath!E2 ^G2 | A2 F2 A2 ^G2 |!mp! F3 !breath!^E F2 D2 |!mf! (E2 D2) C2 ^A2 | %19
w: som var stum, Och|han- den räck- es,|som var kall. Han|le- * ver, Han|
!>(! (B2!>)! A2)!<(! ^G2 =G2!<)! |!f! F4 (F2 D2- | D2) C2 D4 |!>(! D8 | D6 (CB,)!>)! | %24
w: le- * ver, och|du le- *|* va skall,|du|le- va *|
!mf! A,(E DE) (FE) (FG) | F(A GF EG FE) | (DC) (DE) F(G FE | DE) (DC) (B,C) D2- | %28
w: skall! Hal- * * le- * lu- *|ja, hal- * * * * * *|le- * lu- * ja hal- * *|* * le- * lu- * ja,|
 DC (B,2- B,D/C/) (B,>C) | D3 C D3 C | DC B,2- B,3 B, |!ppp!!>(! A,4-!>)! A, z z2 |] %32
w: * hal- le- * * * lu- *|ja, hal- le- lu-|ja, hal- le- * lu-|ja! *|
V:3
!pp! (AG FG) (AB) (cB) | A(B AG FE FB) | (AG) (FG) A(B cB | Ac BA) (GB) (AG) | F(E FG) (AB) (AG) | %5
w: Hal- * * * le- * lu- *|ja, hal- * * * * * *|le- * lu- * ja, hal- * *|* * * * le- * lu- *|ja, hal- * * le- * lu- *|
!pp!!mf! BA (GE) (FA) !fermata!GA | A4 B2 Ac | B2 G2 A2 (AG) | F3 A B2 A2 |!f! A3 B c2 A2 | d6 c2 | %11
w: ja, hal- le- * lu- * ja, Han|le- ver, o min|an- de, känn din *|Her- re och din|Gud i- gen! Han|läm- nat|
 B6 A2 | A8- |!p! A2 ^G2 !breath!A2 c2 | d2 c2 B4- | B4 !breath!^G2 e2 | e2 d2 c4- | %17
w: har sitt|vi-|* lo- rum, Och|rös- ten hö-|* res, Och|han- den räck-|
!mp! !breath!c4 ^A2 B2 |!mf! B4 ^A2 f2 |!>(! f4!>)!!<(! ^e2 =e2!<)! |!f! (dc Bc) (d2 c2 | %21
w: * es, Han|le- ver, Han-|le- ver, och|du * * * le- *|
 B2) _B2 (A2 G2) |!<(! (F2 A2)!<)! (d2 c2) | B2 (AG)!>(! F4-!>)! |!mf! F(G FG) (AB) (cB) | %25
w: * va skall, *|* och du *|le- va * skall!|* Hal- * * le- * lu- *|
 A(c BA) (GB) (AG) | F(E FG) (AB) (AG) | F(E FG) (AG) (FG) | AG (FD/E/ F2) (AG) | F3 G F3 G | %30
w: ja, hal- * * le- * lu- *|ja, hal- * * le- * lu- *|ja, hal- * * le- * lu- *|ja, hal- le- * * * lu- *|ja, hal- le- lu-|
 F3 (D/E/) F2 (AG) |!ppp!!>(! F4-!>)! F z z2 |] %32
w: ja, hal- * le- lu- *|ja! *|
V:4
!pp! D,4 D,3 D, | D,4 D,4 | D,3 D, D,2 D,2 | D,3 D, D,4 | D,4 D,3 D, |!pp!!mf! D,6- !fermata!D,A, | %6
w: Hal- le- lu-|ja, hal-|le- lu- ja, hal-|le- lu- ja,|hal- le- lu-|ja! * Han|
 (D,2 C,2) B,,2 F,A, | G,2 E,2 F,2 C,2 | B,,3 F, E,2 A,2 |!f! F,3 ^G, A,2 A,2 | (D2 C2) B,3 A, | %11
w: le- * ver, o min|an- de, känn din|Her- re och din|Gud i- gen! Han|le- * ver, Han|
 (^G,2 F,2) ^E,2 =E,2 | D,2 C,2 B,,2 (C,D,) |!p! E,2 E,,2 !breath!A,,2 A,2 | G,2 A,2 E,2 D,2 | %15
w: le- * ver, Han|läm- nat har sitt *|vi- lo- rum, Och|rös- ten hö- res,|
 =C,2 B,,2 !breath!E,2 E,2 | A,2 B,2 F,2 E,2 |!mp! D,2 !breath!C,2 F,2 B,2 |!mf! E,4 F,2 F,2 | %19
w: som var stum, Och|han- den räck- es,|som var kall. Han|le- ver, Han|
!>(! B,4!>)!!<(! C2 B,2!<)! |!f! (^A,2 ^G,A,) (B,2 =A,2 | G,4 F,2) E,2 | %22
w: le- ver, och|du * * le- *|* * va|
!<(! D,2 C,2!<)! (B,,2 A,,2) | G,,4!>(! ^G,,4!>)! |!mf! A,,3 A,, A,,3 A,, | A,,4 A,,4 | %26
w: skall, och du *|le- va|skall! Hal- le- lu-|ja, hal-|
 A,,3 A,, A,,4 | (B,,C,) (D,E,) (F,E,) D,2 | (C,B,,) A,,4 A,,2 | (A,,D,) (B,,_B,, A,,F, =B,,_B,,) | %30
w: le- lu- ja,|hal- * le- * lu- * ja,|hal- * le- lu-|ja, * hal- * * * * *|
 A,,4 G,,4 |!ppp!!>(! [D,,D,]4-!>)! [D,,D,] z z2 |] %32
w: le- lu-|ja! *|

